X:1
T:Ave Maris Stella
T:Ave Maris Stella
T:Giovanni Paisiello
T:arr. Avelino Valenti
T:by IMSLP - Pubblico dominio
T:by IMSLP - Pubblico dominio
T:by IMSLP - Pubblico dominio
C:Giovanni Paisiello
Z:arr. Avelino Valenti
Z:by IMSLP - Pubblico dominio
%%score 1 { ( 2 3 6 ) | ( 4 5 ) }
L:1/8
Q:1/4=78
M:4/4
K:F
V:1 treble nm="Voice"
V:2 treble nm="Organo\no     \nPiano  "
V:3 treble 
V:6 treble 
V:4 bass 
V:5 bass 
V:1
"^Andantino" z8 | z8 | z8 | z8 |"^Canto" F3 F E2 G2 | F4 C2 z2 | F2 A2 D2 B2 | A4 G2 z2 | %8
w: ||||A\- ve Ma\- ris|stel\- la,|A\- ve Ma\- ris|stel\- la,|
 A3 A G3 G | F4 C2 z2 | B3 B (Ac) (BA) | A4 G2 z2 |"^cresc." A4 (=B2 c2) | G3"^dim." E (FA) (FD) | %14
w: De\- i ma\- ter|al\- ma,|At\- que sem\- _ per _|Vir\- go,|Fe\- lix, _|Fe\- lix coe\- _ li _|
 (C4 E3 D) | C4 z4 | B4 (AG) (AB) | G4 z2 (C2 | B2) B3/2 B/ (Ac) (BA) | A4 G2 z2 | c4 E2 G2 | %21
w: por\- _ _|ta.|Su\- mens _ il\- _|lud A\-|ve, Ga\- bri\- e\- _ lis *|o\- re,|Fun\- da nos,|
 F3 E (DE) (FG) | (F4 G4) | A4 z4 |!f! c4 (E2 G2) | F3 E (Dd) (BG) | ((F4 A3 G)) | F4 z4 | %28
w: Fun\- da nos _ in _|pa\- _|ce,|Mu\- tans, *|Mu\- tans E\- _ vae _|no\- _ _|men.|
 (E4 F2 G2) | A4 z4 | c8 | F8- | F4 z4 | !fermata!z8 |] %34
w: A _ _|men.|A\-|men.|||
V:2
 F4 E2 G2 | F3 E DdBG | F4- FEDC | (((([B,CEG]4 [A,CF]2)))) z2 | F4 E2 G2 | c2 BA G4 | %6
 F2 A2 D2 B2 | A4 G4 | A4 G4 | F4 G2 A2 | [B,B]4 A2 F2- | F4 E4 |"_cresc." A4 =B2 c2 | %13
 G3"_dim." E FAFD |!<(! C4!<)!!>(! E3 D!>)! | CFEA G^FGA | B4 AGAB | G4 F4 | B4 AcBA | %19
 [=B,A]4 [CG]4 | [CFc]4 E2 G2 | F3 E DE FG | F4 G4 |!<(! [FA]4 [DG=B]4!<)! |!f! c2 _BA G2 FE | %25
 F3 E DdBG |!<(! F4!>(! A3!<)! G!>)! | G2 A"_dim."c GcFc |!p! EcEc FcFc | AcAc GcFc | EcFc ^FcGc | %31
 [CFAc]4 [DFAd]4 | [CFAc]4 [DFBd]4 | !fermata![FAf]4 z4 |] %34
V:3
 A,4 B,4 | A,4 B, z z2 | C2 =B,2 _B,4 | x8 | A,4 B,4 | C8- | C2- C^C D2- D2 | C2 =B,2 _B,4 | %8
 z CCC z CCC | z CCC z CCC | F2 G2 [CF]2 C2- | C2 =B,2 C4 | z2 C2 F2 G2 | D2 E_B, A,4 | %14
 G,2 A,2 =B,4 | C8 | z CCC C4- | CCCC C4- | CCCC C4 | x8 | x4 C4- | C4 B,2 CD | A,CA,C B,CB,C | %23
 C8 | C8 | C2 ^C2 D4 | C2 D2 E4 | C8- | C8- | C8- | C8- | x8 | x8 | x8 |] %34
V:4
 [F,,C,]8 | C,2 ^C,2 F,^F,G,B, | A,2 _A,2 G,2 F,E, | [F,,F,]2 C,2 F,,2 z2 | C,8 | F,4 E,2 D,C, | %6
 F,4- F,^F,G,D, | =F,2 D,2 E,2 D,C, | F,,4 [B,,E,]4 | [A,,F,]4 E,2 F,2 | D,,2 E,,2 F,,2 A,,2 | %11
 D,2 G,,2 C,2 D,E, | F,4 D,2 E,2 | =B,,2 E,^E, F,4 |!<(! E,2 F,2!<)!!>(! G,2 F,2!>)! | %15
 C,A,G,F, E,^D,E,^F, | G,4 =F,4 | B,4 A,G,A,B, | G,4 F,4 | C,2 G,F, C,D,C,_B,, | A,,2 G,,F,, B,,4 | %21
 A,,F,,G,,A,, B,,G,,A,,B,, | C,4 C,4 | F,G,A,G, F,E,F,D, | E,4 B,4 | A,4 F,^F,G,B, | %26
!<(! A,2 B,2!<)!!>(! C2 B,2!>)! | [F,A,]4 [E,G,]2 [D,F,]2 | B,8 | [F,A,]4 [E,G,]2 [D,F,]2 | B,8 | %31
 A,8- | [F,A,]4 [B,,F,]4 | !fermata![F,,C,F,]4 z4 |] %34
V:5
 x8 | F,,4 B,,4 | C,8 | x8 | F,,4 G,,4 | A,,4 B,,4 | A,,2 F,,2 B,,2 G,,2 | C,8 | x8 | x8 | x8 | %11
 x8 | x8 | x8 | G,,8 | C,8 | C,8- | C,8- | C,8 | C,4- E,4 | x8 | x8 | x8 | x8 | x8 | x4 B,,4 | %26
 C,8 | x8 | C,4 D,2 E,2 | x8 | C,2 D,2 ^D,2 E,2 | E,4 D,4 | x8 | x8 |] %34
V:6
 x8 | x8 | x8 | x8 | x8 | x8 | x8 | x8 | A,4 G,4 | x8 | x8 | x8 | x8 | x8 | x8 | x8 | x8 | x8 | %18
 x8 | x8 | x8 | x8 | x8 | x8 | x8 | x8 | x8 | x8 | x8 | x8 | x8 | x8 | x8 | x8 |] %34

